X: 1
T: Dinny Delaney's
M: 6/8
L: 1/8
R: jig
K: Gmaj
G3 GBd|edB deg|bge dBG|A3 AbA|
G3 G(3Bcd|edB deg|age deg|1aba ged:|2|aba g2a||
b2g age|ged g2e|dBA GAB|dBA GED|
DEG GAB| edB deg|age deg|aba g2a:|
